archdroid-icon-theme/Archdroid-Green/apps/scalable/system-shutdown.svg

<svg fill="#4caf50" height="48" viewBox="0 0 48 48" width="48" xmlns="http://www.w3.org/2000/svg"><path d="m14 46h4v-4h-4zm8 0h4v-4h-4zm4-44h-4v20h4zm7.13 4.87-2.89 2.89c3.45 2.11 5.76 5.9 5.76 10.24 0 6.63-5.37 12-12 12s-12-5.37-12-12c0-4.34 2.31-8.13 5.76-10.24l-2.89-2.89c-4.15 2.89-6.87 7.69-6.87 13.13 0 8.84 7.16 16 16 16s16-7.16 16-16c0-5.44-2.72-10.24-6.87-13.13zm-3.13 39.13h4v-4h-4z" fill="#4caf50"/></svg>

<svg fill="#4caf50" height="48" version="1.1" viewBox="0 0 48 48" width="48" xmlns="http://www.w3.org/2000/svg"><path d="m14 46l4 0 0-4-4 0 0 4zm8 0l4 0 0-4-4 0 0 4zm4-44l-4 0 0 20 4 0 0-20zm7.13 4.87l-2.89 2.89C33.69 11.87 36 15.66 36 20 36 26.63 30.63 32 24 32 17.37 32 12 26.63 12 20c0-4.34 2.31-8.13 5.76-10.24L14.87 6.87C10.72 9.76 8 14.56 8 20 8 28.84 15.16 36 24 36 32.84 36 40 28.84 40 20 40 14.56 37.28 9.76 33.13 6.87ZM30 46l4 0 0-4-4 0 0 4z"/></svg>
